!!!OTL: Dreikoenigslied Nun macht euch auf ihr Koenige
!!!ARE: Europa, Mitteleuropa, Lothringen, Hambach
!!!SCT: D0057
!!!YEM: Copyright 1995, estate of Helmut Schaffrath.
**kern
*ICvox
*Ivox
*M4/4
*k[f#]
*G:
{4d
=1
8g
8f#
4e
4f#
4g
=2
4.a
8b
4a}
{8f#
8d
=3
4g
4g
4cc
4b
=4
2a
4r}
{4d
=5
8g
8f#
4e
4f#
4g
=6
4.a
8b
4a}
{8f#
8d
=7
4g
4g
4cc
4b
=8
2a
4r}
{8f#
8g
=9
4.a
8b
8a
8g
8f#
8e
=10
4.d
8c#
4d}
{4d
=11
4.g
8a
4g
4f#
=12
2e
4d}
{4d
=13
8g
8f#
4e
4f#
4g
=14
4.a
8b
4g}
{4cc
=15
4b
4b
8a
8g
4a
=16
2g
4r}
==
!!!AGN:  Brauchtums - Lied, Dreikoenigs - Lied
!! Achttonskala (Ionisch mit Modulation in die Dominanttonart)
!!    Verzierungen; Inzipit = Variante zum Lied
!!!ONB: ESAC (Essen Associative Code) Database: DVA
!!!AMT: simple quadruple
!!!AIN: vox
!!!EED: Helmut Schaffrath
!!!EEV: 1.0
*-
